X: 12659
T: Farrel O'Gara's
R: reel
M: 4/4
K: Dmajor
|:A3B DEFA|BFAF EFGA|dBBA BAGF|GEED ED D2|
A3B DEFA|BFAF EFGA|dBcA (3Bcd AF|G2EG FDD2:|
fdde fdgd|fdgf edBc|dBBA Bcde|fdgf e2ge|
fdde fdgd|fdgf edBc|dBBA BAGF|G2EG FDD2|
fdde fdgd|fdgf edBc|dBBA Bcde|fdgf e3g|
faaf edBc|d2ed BAFD|ED D2 ADFA|(3Bcd AF ED D2||

